components/ui-node-icon/src/golden/golden.medium.svg

<svg width="24" height="24" viewBox="0 0 24 24" fill="none" xmlns="http://www.w3.org/2000/svg">
  <path fill-rule="evenodd" clip-rule="evenodd" d="M3 3C1.89543 3 1 3.89543 1 5V19C1 20.1046 1.89543 21 3 21H11.2547C10.4638 19.8662 10 18.4872 10 17C10 13.134 13.134 10 17 10C18.4872 10 19.8662 10.4638 21 11.2547V5C21 3.89543 20.1046 3 19 3H3Z" fill="var(--tbl--colors--icons--clean--secondary)"/>
  <path fill-rule="evenodd" clip-rule="evenodd" d="M3 3C1.89543 3 1 3.89543 1 5V6H21V5C21 3.89543 20.1046 3 19 3H3ZM22 17C22 19.7614 19.7614 22 17 22C14.2386 22 12 19.7614 12 17C12 14.2386 14.2386 12 17 12C18.3162 12 19.5136 12.5086 20.4064 13.3399L16.9005 17.5032L15.7231 16.2236C15.3417 15.8242 14.7087 15.8097 14.3093 16.1912C13.9099 16.5726 13.8954 17.2056 14.2769 17.605L16.2242 19.6907C16.4204 19.8961 16.6947 20.0084 16.9787 19.9995C17.2626 19.9906 17.5293 19.8614 17.7123 19.6442L21.5973 15.0307C21.8565 15.6351 22 16.3008 22 17Z" fill="var(--tbl--colors--icons--clean--primary)"/>
</svg>

<svg xmlns="http://www.w3.org/2000/svg" width="24" height="24" fill="none" viewBox="0 0 24 24">
  <path fill="var(--tbl--colors--icons--clean--secondary)" fill-rule="evenodd" d="M3 3a2 2 0 0 0-2 2v14a2 2 0 0 0 2 2h8.255A7 7 0 0 1 21 11.255V5a2 2 0 0 0-2-2H3Z" clip-rule="evenodd"/>
  <path fill="var(--tbl--colors--icons--clean--primary)" fill-rule="evenodd" d="M3 3a2 2 0 0 0-2 2v1h20V5a2 2 0 0 0-2-2H3Zm19 14a5 5 0 1 1-1.594-3.66l-3.505 4.163-1.178-1.28a1 1 0 1 0-1.446 1.382l1.947 2.086a1 1 0 0 0 1.488-.047l3.885-4.613c.26.604.403 1.27.403 1.969Z" clip-rule="evenodd"/>
</svg>
